svg/material-icons/online_prediction/materialiconsround/20px.svg

<svg xmlns="http://www.w3.org/2000/svg" width="20" height="20" viewBox="0 0 20 20"><path d="M12.5 9.5c0 1.5-1.75 2.5-1.75 3.5h-1.5c0-1-1.75-2-1.75-3.5a2.5 2.5 0 0 1 5 0zm-7.11 5.11c.21-.18.23-.5.05-.71A5.984 5.984 0 0 1 4 10c0-1.43.51-2.82 1.44-3.9.18-.21.16-.53-.05-.71a.506.506 0 0 0-.71.06 7.005 7.005 0 0 0 0 9.1c.1.12.24.17.38.17.12.01.23-.03.33-.11zm1.4-1.41c.22-.17.25-.49.08-.7A3.98 3.98 0 0 1 6 10c0-.92.3-1.78.87-2.5.17-.22.14-.53-.08-.7a.496.496 0 0 0-.7.08C5.39 7.76 5 8.87 5 10c0 1.15.38 2.22 1.09 3.12.1.12.24.19.39.19.11 0 .22-.04.31-.11zm8.14 1.53c.14 0 .28-.06.38-.17a7.005 7.005 0 0 0 0-9.1.505.505 0 0 0-.71-.05c-.21.18-.23.5-.05.71a6.004 6.004 0 0 1 0 7.8c-.18.21-.16.53.05.71.1.06.21.1.33.1zm-1.42-1.42c.15 0 .29-.06.39-.19.71-.89 1.09-1.97 1.09-3.12 0-1.13-.39-2.24-1.09-3.12a.505.505 0 0 0-.7-.08c-.22.17-.25.49-.08.7.57.71.87 1.58.87 2.5 0 .92-.3 1.78-.87 2.5-.17.21-.14.53.08.7.09.07.2.11.31.11zm-2.76.94V14h-1.5v.25c0 .41.34.75.75.75s.75-.34.75-.75z"/></svg>

<svg xmlns="http://www.w3.org/2000/svg" enable-background="new 0 0 20 20" height="20" viewBox="0 0 20 20" width="20"><g><rect fill="none" height="20" width="20"/><path d="M12.5,9.5c0,1.5-1.75,2.5-1.75,3.5c0,0-1.15,0-1.5,0c0-1-1.75-2-1.75-3.5C7.5,8.12,8.62,7,10,7c0,0,0,0,0,0l0,0l0,0 C11.38,7,12.5,8.12,12.5,9.5z M5.39,14.61c0.21-0.18,0.23-0.5,0.05-0.71C4.51,12.82,4,11.43,4,10c0-1.43,0.51-2.82,1.44-3.9 C5.62,5.89,5.6,5.57,5.39,5.39C5.18,5.21,4.86,5.24,4.68,5.45C3.6,6.71,3,8.33,3,10c0,1.67,0.6,3.29,1.68,4.55 c0.1,0.12,0.24,0.17,0.38,0.17C5.18,14.73,5.29,14.69,5.39,14.61z M6.79,13.2c0.22-0.17,0.25-0.49,0.08-0.7C6.3,11.78,6,10.92,6,10 c0-0.92,0.3-1.78,0.87-2.5c0.17-0.22,0.14-0.53-0.08-0.7c-0.21-0.17-0.53-0.14-0.7,0.08C5.39,7.76,5,8.87,5,10 c0,1.15,0.38,2.22,1.09,3.12c0.1,0.12,0.24,0.19,0.39,0.19C6.59,13.31,6.7,13.27,6.79,13.2z M14.93,14.73 c0.14,0,0.28-0.06,0.38-0.17c1.09-1.27,1.68-2.88,1.68-4.55c0-1.67-0.6-3.29-1.68-4.55c-0.18-0.21-0.5-0.23-0.71-0.05 c-0.21,0.18-0.23,0.5-0.05,0.71c0.93,1.09,1.44,2.47,1.44,3.9c0,1.43-0.51,2.82-1.44,3.9c-0.18,0.21-0.16,0.53,0.05,0.71 C14.7,14.69,14.81,14.73,14.93,14.73z M13.51,13.31c0.15,0,0.29-0.06,0.39-0.19c0.71-0.89,1.09-1.97,1.09-3.12 c0-1.13-0.39-2.24-1.09-3.12c-0.17-0.21-0.49-0.25-0.7-0.08c-0.22,0.17-0.25,0.49-0.08,0.7c0.57,0.71,0.87,1.58,0.87,2.5 c0,0.92-0.3,1.78-0.87,2.5c-0.17,0.21-0.14,0.53,0.08,0.7C13.29,13.27,13.4,13.31,13.51,13.31z M10.75,14.25V14h-1.5v0.25 C9.25,14.66,9.59,15,10,15h0C10.41,15,10.75,14.66,10.75,14.25z"/></g></svg>
